src/svg/color/fsn.svg

<svg xmlns="http://www.w3.org/2000/svg" width="32" height="32" viewBox="0 0 32 32"><g fill="none" fill-rule="evenodd"><circle cx="16" cy="16" r="16" fill="#1D9AD7"/><path fill="#FFF" d="M26,12.2116349 C24.9913793,11.1582466 22.9181034,10.275678 19.0517241,9.73474892 C17.7909483,9.5639292 16.5581897,9.42157943 15.3814655,9.33616957 C14.4288793,9.27922966 13.5043103,9.22228976 12.6077586,9.22228976 C11.1228448,11.4429461 9.72198276,14.1191218 8.48922414,17.3362265 C7.14439655,20.8665008 5.93965517,24.3398351 5.09913793,27.5 L4.84698276,27.5 C4.93103448,24.1120755 5.49137931,20.2686318 6.64008621,16.2828383 C7.39655172,13.6920725 8.29310345,11.4144762 9.30172414,9.42157943 C4.76293103,9.90556864 1.51293103,11.3005964 0,13.2934931 C1.2887931,10.1333283 5.12715517,7.45715263 10.9827586,6.51764416 C14.0926724,1.87704172 17.762931,-0.201264901 20.8168103,0.709773616 C21.8814655,1.02294311 22.7780172,1.70622199 23.5064655,2.67420042 C23.4224138,2.61726051 23.3383621,2.5603206 23.2262931,2.53185065 C20.9849138,1.62081213 17.9590517,2.93043 15.0172414,6.17600472 C15.0732759,6.17600472 15.1012931,6.17600472 15.1573276,6.17600472 C21.7413793,6.14753476 25.075431,8.93759022 26,12.2116349 Z M17.762931,16.4821279 C19.5560345,16.4821279 21.012931,17.9910355 21.012931,19.8415825 C21.012931,21.6921295 19.5560345,23.201037 17.762931,23.201037 C15.9698276,23.201037 14.512931,21.6921295 14.512931,19.8415825 C14.512931,17.9625655 15.9698276,16.4821279 17.762931,16.4821279 Z"/></g></svg>

<svg xmlns="http://www.w3.org/2000/svg" width="32" height="32" viewBox="0 0 32 32"><g fill="none" fill-rule="evenodd"><circle cx="16" cy="16" r="16" fill="#1D9AD7"/><path fill="#FFF" d="M26 12.212c-1.009-1.054-3.082-1.936-6.948-2.477a59.901 59.901 0 0 0-3.67-.399c-.953-.057-1.878-.114-2.774-.114-1.485 2.22-2.886 4.897-4.119 8.114C7.144 20.866 5.94 24.34 5.1 27.5h-.252c.084-3.388.644-7.231 1.793-11.217.757-2.59 1.653-4.869 2.662-6.861-4.54.484-7.79 1.879-9.302 3.871 1.289-3.16 5.127-5.836 10.983-6.775 3.11-4.641 6.78-6.72 9.834-5.808 1.064.313 1.961.996 2.69 1.964-.085-.057-.169-.114-.28-.142-2.242-.911-5.268.398-8.21 3.644h.14c6.584-.028 9.918 2.762 10.843 6.036zm-8.237 4.27c1.793 0 3.25 1.509 3.25 3.36 0 1.85-1.457 3.359-3.25 3.359s-3.25-1.509-3.25-3.36c0-1.878 1.457-3.359 3.25-3.359z"/></g></svg>
